X: 23117
T: Laurel Tree, The
R: reel
M: 4/4
K: Adorian
e ~A3 eAdc|B/c/d GA Bcd{/a}g|e ~A3 E ~A3|{/c} BAGB{/G} ~A3 G|
E ~A3 eAdc|B/c/d gd Bc!breath!d z|~e3 f ga b/a/g|a/g/e dB{/g} ~a3 z|
e ~A3 eAdc|B/c/d GA Bcd{/a}g|e ~A3 E ~A3|{/c} BAGD ~A3 z|e ~A3 eAdc|
B/c/d gd Bcd z|~e3 f ga b/a/g|a/g/e dB{/G} ~A3 z||
ea{/b}ag ~e2 dc|B/c/d GD Bcd{/a}g|ea{/b}ag ~e2 dc|~BAgd ~a3 z|
ea{/b}ag ~e2 dc|B/c/d gd Bcd z|~e3 f ga b/a/g|a/g/e dB{/G} ~A3 z|
ea{/b}ag ~e2 dc|B/c/d GA Bcd z|ea{/b}ag"tongued\nhalf roll\n" ~a2 ga|~b3 .d .~a3 z|
ea{/b}ag e/g/e dc|B/c/d{/a} gd Bcd z|~e3 f ga b/a/g|a/g/e dB{/G} ~A3 z||

